Numix-Light/16/status/indicator-keyboard-Sy-2.svg

<?xml version="1.0" encoding="UTF-8" standalone="no"?>
<svg
   xmlns:dc="http://purl.org/dc/elements/1.1/"
   xmlns:cc="http://creativecommons.org/ns#"
   xmlns:rdf="http://www.w3.org/1999/02/22-rdf-syntax-ns#"
   xmlns:svg="http://www.w3.org/2000/svg"
   xmlns="http://www.w3.org/2000/svg"
   xmlns:sodipodi="http://sodipodi.sourceforge.net/DTD/sodipodi-0.dtd"
   xmlns:inkscape="http://www.inkscape.org/namespaces/inkscape"
   viewBox="0 0 16 16"
   id="svg2"
   version="1.1"
   inkscape:version="0.91 r13725"
   sodipodi:docname="indicator-keyboard-Sy-2.svg">
  <metadata
     id="metadata14">
    <rdf:RDF>
      <cc:Work
         rdf:about="">
        <dc:format>image/svg+xml</dc:format>
        <dc:type
           rdf:resource="http://purl.org/dc/dcmitype/StillImage" />
      </cc:Work>
    </rdf:RDF>
  </metadata>
  <defs
     id="defs12" />
  <sodipodi:namedview
     pagecolor="#ffffff"
     bordercolor="#666666"
     borderopacity="1"
     objecttolerance="10"
     gridtolerance="10"
     guidetolerance="10"
     inkscape:pageopacity="0"
     inkscape:pageshadow="2"
     inkscape:window-width="459"
     inkscape:window-height="369"
     id="namedview10"
     showgrid="false"
     inkscape:zoom="14.75"
     inkscape:cx="8"
     inkscape:cy="8"
     inkscape:window-x="65"
     inkscape:window-y="24"
     inkscape:window-maximized="0"
     inkscape:current-layer="svg2" />
  <path
     style="fill:#353535;fill-opacity:1"
     d="M 1.5996094 0 C 0.71320937 2.9605947e-16 0 0.71320937 0 1.5996094 L 0 14.400391 C 2.9605947e-16 15.286791 0.71320937 16 1.5996094 16 L 14.400391 16 C 15.286791 16 16 15.286791 16 14.400391 L 16 1.5996094 C 16 0.71320937 15.286791 0 14.400391 0 L 1.5996094 0 z M 4.5234375 4.7246094 C 4.6914375 4.7246094 4.8575313 4.7357656 5.0195312 4.7597656 C 5.1815312 4.7837656 5.33075 4.817375 5.46875 4.859375 C 5.61275 4.895375 5.7414688 4.936375 5.8554688 4.984375 C 5.9754687 5.032375 6.0743438 5.0846719 6.1523438 5.1386719 L 5.9375 5.6503906 C 5.7635 5.5303906 5.548875 5.4352813 5.296875 5.3632812 C 5.050875 5.2912813 4.7840937 5.2558594 4.4960938 5.2558594 C 4.2980938 5.2558594 4.1152656 5.2763594 3.9472656 5.3183594 C 3.7852656 5.3543594 3.6453906 5.4178125 3.5253906 5.5078125 C 3.4053906 5.5918125 3.3083281 5.6980781 3.2363281 5.8300781 C 3.1703281 5.9620781 3.1367188 6.1225938 3.1367188 6.3085938 C 3.1367188 6.5005938 3.1740938 6.6629219 3.2460938 6.7949219 C 3.3180938 6.9269219 3.4169687 7.0407187 3.5429688 7.1367188 C 3.6749687 7.2327187 3.8279531 7.3184844 4.0019531 7.3964844 C 4.1759531 7.4744844 4.3643594 7.556625 4.5683594 7.640625 C 4.8143594 7.742625 5.0457187 7.8433125 5.2617188 7.9453125 C 5.4837188 8.0473125 5.6758906 8.1686406 5.8378906 8.3066406 C 5.9998906 8.4446406 6.1286094 8.6125469 6.2246094 8.8105469 C 6.3206094 9.0085469 6.3691406 9.2510625 6.3691406 9.5390625 C 6.3691406 10.103063 6.1713906 10.526594 5.7753906 10.808594 C 5.3853906 11.090594 4.8536406 11.230469 4.1816406 11.230469 C 3.9416406 11.230469 3.7233906 11.215547 3.5253906 11.185547 C 3.3273906 11.155547 3.1501406 11.120125 2.9941406 11.078125 C 2.8381406 11.030125 2.7056563 10.981594 2.5976562 10.933594 C 2.4896563 10.885594 2.4057031 10.844594 2.3457031 10.808594 L 2.5429688 10.277344 C 2.6029688 10.313344 2.6851094 10.354344 2.7871094 10.402344 C 2.8891094 10.450344 3.0084844 10.498875 3.1464844 10.546875 C 3.2844844 10.588875 3.4412344 10.624297 3.6152344 10.654297 C 3.7892344 10.684297 3.9814063 10.699219 4.1914062 10.699219 C 4.6774063 10.699219 5.0542187 10.613453 5.3242188 10.439453 C 5.5942188 10.259453 5.7304687 9.970219 5.7304688 9.5742188 C 5.7304688 9.3462187 5.68375 9.1578125 5.59375 9.0078125 C 5.50975 8.8518125 5.3959531 8.7230938 5.2519531 8.6210938 C 5.1079531 8.5130937 4.9438125 8.4235625 4.7578125 8.3515625 C 4.5718125 8.2735625 4.375875 8.1914219 4.171875 8.1074219 C 3.913875 8.0054219 3.6844687 7.9009687 3.4804688 7.7929688 C 3.2764688 7.6849688 3.1010312 7.5655937 2.9570312 7.4335938 C 2.8130312 7.2955937 2.703 7.1388438 2.625 6.9648438 C 2.553 6.7908437 2.5175781 6.5875156 2.5175781 6.3535156 C 2.5175781 5.8195156 2.692875 5.4146719 3.046875 5.1386719 C 3.400875 4.8626719 3.8934375 4.7246094 4.5234375 4.7246094 z M 6.7539062 6.4433594 L 7.375 6.4433594 C 7.441 6.7313594 7.5249531 7.0429062 7.6269531 7.3789062 C 7.7289531 7.7089062 7.8447031 8.0502969 7.9707031 8.4042969 C 8.1027031 8.7582969 8.2463437 9.1221406 8.4023438 9.4941406 C 8.5583438 9.8661408 8.72625 10.231797 8.90625 10.591797 C 9.03825 10.219797 9.1558125 9.8690627 9.2578125 9.5390625 C 9.3598125 9.2090625 9.4511563 8.8825937 9.5351562 8.5585938 C 9.6251563 8.2285937 9.7091094 7.8927813 9.7871094 7.5507812 C 9.8711094 7.2087812 9.9588283 6.8393594 10.048828 6.4433594 L 10.634766 6.4433594 C 10.442766 7.3133594 10.222562 8.1584687 9.9765625 8.9804688 C 9.7305625 9.8024689 9.4637812 10.556234 9.1757812 11.240234 C 9.0617813 11.510234 8.9442187 11.741594 8.8242188 11.933594 C 8.7042188 12.131594 8.5699219 12.293922 8.4199219 12.419922 C 8.2759219 12.545922 8.10425 12.637266 7.90625 12.697266 C 7.71425 12.757266 7.4866563 12.787109 7.2226562 12.787109 C 7.0726562 12.787109 6.9345938 12.770375 6.8085938 12.734375 C 6.6885938 12.698375 6.6139844 12.670344 6.5839844 12.652344 L 6.7011719 12.167969 C 6.7251719 12.185969 6.7904375 12.208281 6.8984375 12.238281 C 7.0124375 12.274281 7.13 12.292969 7.25 12.292969 C 7.418 12.292969 7.5672187 12.274281 7.6992188 12.238281 C 7.8372188 12.202281 7.9603594 12.140781 8.0683594 12.050781 C 8.1763594 11.966781 8.2734219 11.854797 8.3574219 11.716797 C 8.4474219 11.578797 8.5331875 11.405312 8.6171875 11.195312 C 8.4191875 10.829313 8.2270156 10.448734 8.0410156 10.052734 C 7.8610156 9.6567342 7.6912969 9.2574687 7.5292969 8.8554688 C 7.3732969 8.4474688 7.2296562 8.042625 7.0976562 7.640625 C 6.9656563 7.232625 6.8499062 6.8333594 6.7539062 6.4433594 z M 12.326172 8.7539062 C 12.720071 8.7539062 13.015944 8.851875 13.214844 9.046875 C 13.413744 9.237975 13.513672 9.5044563 13.513672 9.8476562 C 13.513672 9.9997563 13.486241 10.14475 13.431641 10.28125 C 13.377041 10.41385 13.302584 10.543169 13.208984 10.667969 C 13.119284 10.792769 13.017391 10.912297 12.900391 11.029297 C 12.783391 11.146297 12.663869 11.263859 12.542969 11.380859 C 12.441569 11.478359 12.341641 11.578288 12.244141 11.679688 C 12.150541 11.777188 12.064328 11.877116 11.986328 11.978516 C 11.912228 12.076016 11.853441 12.172031 11.806641 12.269531 C 11.763741 12.363131 11.742188 12.457181 11.742188 12.550781 L 11.742188 12.5625 L 13.654297 12.5625 L 13.654297 12.896484 L 11.320312 12.896484 C 11.320312 12.888684 11.318386 12.874969 11.314453 12.855469 L 11.314453 12.755859 C 11.314453 12.572559 11.347762 12.402094 11.414062 12.246094 C 11.480362 12.086194 11.564616 11.937275 11.666016 11.796875 C 11.771316 11.656475 11.884966 11.525197 12.009766 11.404297 C 12.138466 11.283397 12.261906 11.165834 12.378906 11.052734 C 12.476406 10.959134 12.568497 10.869003 12.654297 10.783203 C 12.743997 10.693503 12.822373 10.603366 12.888672 10.509766 C 12.954972 10.416166 13.005922 10.316237 13.044922 10.210938 C 13.083922 10.105638 13.103516 9.9900344 13.103516 9.8652344 C 13.103516 9.5922344 13.031013 9.39825 12.882812 9.28125 C 12.738513 9.16035 12.554331 9.0996094 12.332031 9.0996094 C 12.207231 9.0996094 12.095547 9.1152844 11.998047 9.1464844 C 11.900547 9.1776844 11.816287 9.2149125 11.742188 9.2578125 C 11.671987 9.2968125 11.611247 9.3379594 11.560547 9.3808594 C 11.509847 9.4237594 11.472619 9.4570688 11.449219 9.4804688 L 11.25 9.2167969 C 11.2734 9.1894969 11.314547 9.1503094 11.373047 9.0996094 C 11.435447 9.0450094 11.511862 8.9921062 11.601562 8.9414062 C 11.695163 8.8907063 11.800975 8.8476 11.921875 8.8125 C 12.042775 8.7735 12.177972 8.7539063 12.326172 8.7539062 z "
     id="path4" />
</svg>

<svg xmlns="http://www.w3.org/2000/svg" viewBox="0 0 16 16">
 <path d="m 1.6 0 c -0.886 0 -1.6 0.713 -1.6 1.6 l 0 12.801 c 0 0.886 0.713 1.6 1.6 1.6 l 12.801 0 c 0.886 0 1.6 -0.713 1.6 -1.6 l 0 -12.801 c 0 -0.886 -0.713 -1.6 -1.6 -1.6 l -12.801 0 z m 2.924 4.725 c 0.168 0 0.334 0.011 0.496 0.035 c 0.162 0.024 0.311 0.058 0.449 0.1 c 0.144 0.036 0.273 0.077 0.387 0.125 c 0.12 0.048 0.219 0.1 0.297 0.154 l -0.215 0.512 c -0.174 -0.12 -0.389 -0.215 -0.641 -0.287 c -0.246 -0.072 -0.513 -0.107 -0.801 -0.107 c -0.198 0 -0.381 0.02 -0.549 0.063 c -0.162 0.036 -0.302 0.099 -0.422 0.189 c -0.12 0.084 -0.217 0.19 -0.289 0.322 c -0.066 0.132 -0.1 0.293 -0.1 0.479 c 0 0.192 0.037 0.354 0.109 0.486 c 0.072 0.132 0.171 0.246 0.297 0.342 c 0.132 0.096 0.285 0.182 0.459 0.26 c 0.174 0.078 0.362 0.16 0.566 0.244 c 0.246 0.102 0.477 0.203 0.693 0.305 c 0.222 0.102 0.414 0.223 0.576 0.361 c 0.162 0.138 0.291 0.306 0.387 0.504 c 0.096 0.198 0.145 0.441 0.145 0.729 c 0 0.564 -0.198 0.988 -0.594 1.27 c -0.39 0.282 -0.922 0.422 -1.594 0.422 c -0.24 0 -0.458 -0.015 -0.656 -0.045 c -0.198 -0.03 -0.375 -0.065 -0.531 -0.107 c -0.156 -0.048 -0.288 -0.097 -0.396 -0.145 c -0.108 -0.048 -0.192 -0.089 -0.252 -0.125 l 0.197 -0.531 c 0.06 0.036 0.142 0.077 0.244 0.125 c 0.102 0.048 0.221 0.097 0.359 0.145 c 0.138 0.042 0.295 0.077 0.469 0.107 c 0.174 0.03 0.366 0.045 0.576 0.045 c 0.486 0 0.863 -0.086 1.133 -0.26 c 0.27 -0.18 0.406 -0.469 0.406 -0.865 c 0 -0.228 -0.047 -0.416 -0.137 -0.566 c -0.084 -0.156 -0.198 -0.285 -0.342 -0.387 c -0.144 -0.108 -0.308 -0.198 -0.494 -0.27 c -0.186 -0.078 -0.382 -0.16 -0.586 -0.244 c -0.258 -0.102 -0.487 -0.206 -0.691 -0.314 c -0.204 -0.108 -0.379 -0.227 -0.523 -0.359 c -0.144 -0.138 -0.254 -0.295 -0.332 -0.469 c -0.072 -0.174 -0.107 -0.377 -0.107 -0.611 c 0 -0.534 0.175 -0.939 0.529 -1.215 c 0.354 -0.276 0.847 -0.414 1.477 -0.414 z m 2.23 1.719 l 0.621 0 c 0.066 0.288 0.15 0.6 0.252 0.936 c 0.102 0.33 0.218 0.671 0.344 1.025 c 0.132 0.354 0.276 0.718 0.432 1.09 c 0.156 0.372 0.324 0.738 0.504 1.098 c 0.132 -0.372 0.25 -0.723 0.352 -1.053 c 0.102 -0.33 0.193 -0.656 0.277 -0.98 c 0.09 -0.33 0.174 -0.666 0.252 -1.01 c 0.084 -0.342 0.172 -0.711 0.262 -1.107 l 0.586 0 c -0.192 0.87 -0.412 1.715 -0.658 2.537 c -0.246 0.822 -0.513 1.576 -0.801 2.26 c -0.114 0.27 -0.232 0.501 -0.352 0.693 c -0.12 0.198 -0.254 0.36 -0.404 0.486 c -0.144 0.126 -0.316 0.217 -0.514 0.277 c -0.192 0.06 -0.42 0.09 -0.684 0.09 c -0.15 0 -0.288 -0.017 -0.414 -0.053 c -0.12 -0.036 -0.195 -0.064 -0.225 -0.082 l 0.117 -0.484 c 0.024 0.018 0.089 0.04 0.197 0.07 c 0.114 0.036 0.232 0.055 0.352 0.055 c 0.168 0 0.317 -0.019 0.449 -0.055 c 0.138 -0.036 0.261 -0.098 0.369 -0.188 c 0.108 -0.084 0.205 -0.196 0.289 -0.334 c 0.09 -0.138 0.176 -0.311 0.26 -0.521 c -0.198 -0.366 -0.39 -0.747 -0.576 -1.143 c -0.18 -0.396 -0.35 -0.795 -0.512 -1.197 c -0.156 -0.408 -0.3 -0.813 -0.432 -1.215 c -0.132 -0.408 -0.248 -0.807 -0.344 -1.197 z m 5.572 2.311 c 0.394 0 0.69 0.098 0.889 0.293 c 0.199 0.191 0.299 0.458 0.299 0.801 c 0 0.152 -0.027 0.297 -0.082 0.434 c -0.055 0.133 -0.129 0.262 -0.223 0.387 c -0.09 0.125 -0.192 0.244 -0.309 0.361 c -0.117 0.117 -0.237 0.235 -0.357 0.352 c -0.101 0.098 -0.201 0.197 -0.299 0.299 c -0.094 0.098 -0.18 0.197 -0.258 0.299 c -0.074 0.097 -0.133 0.194 -0.18 0.291 c -0.043 0.094 -0.064 0.188 -0.064 0.281 l 0 0.012 l 1.912 0 l 0 0.334 l -2.334 0 c 0 -0.008 -0.002 -0.022 -0.006 -0.041 l 0 -0.1 c 0 -0.183 0.033 -0.354 0.1 -0.51 c 0.066 -0.16 0.151 -0.309 0.252 -0.449 c 0.105 -0.14 0.219 -0.272 0.344 -0.393 c 0.129 -0.121 0.252 -0.238 0.369 -0.352 c 0.098 -0.094 0.19 -0.184 0.275 -0.27 c 0.09 -0.09 0.168 -0.18 0.234 -0.273 c 0.066 -0.094 0.117 -0.194 0.156 -0.299 c 0.039 -0.105 0.059 -0.221 0.059 -0.346 c 0 -0.273 -0.073 -0.467 -0.221 -0.584 c -0.144 -0.121 -0.328 -0.182 -0.551 -0.182 c -0.125 0 -0.236 0.016 -0.334 0.047 c -0.098 0.031 -0.182 0.068 -0.256 0.111 c -0.07 0.039 -0.131 0.08 -0.182 0.123 c -0.051 0.043 -0.088 0.076 -0.111 0.1 l -0.199 -0.264 c 0.023 -0.027 0.065 -0.066 0.123 -0.117 c 0.062 -0.055 0.139 -0.108 0.229 -0.158 c 0.094 -0.051 0.199 -0.094 0.32 -0.129 c 0.121 -0.039 0.256 -0.059 0.404 -0.059 z" style="fill:#353535;fill-opacity:1"/>
</svg>
